apps/32/utilities-terminal.svg

<?xml version="1.0" encoding="UTF-8" standalone="no"?>
<!-- Created with Inkscape (http://www.inkscape.org/) -->
<svg
   xmlns:svg="http://www.w3.org/2000/svg"
   xmlns="http://www.w3.org/2000/svg"
   xmlns:xlink="http://www.w3.org/1999/xlink"
   version="1.0"
   width="32"
   height="32"
   id="svg3415">
  <defs
     id="defs3417">
    <radialGradient
       cx="605.71429"
       cy="486.64789"
       r="117.14286"
       fx="605.71429"
       fy="486.64789"
       id="radialGradient3409"
       xlink:href="#linearGradient5060"
       gradientUnits="userSpaceOnUse"
       gradientTransform="matrix(-2.774389,0,0,1.969706,112.7623,-872.8854)" />
    <linearGradient
       id="linearGradient5060">
      <stop
         id="stop5062"
         style="stop-color:#000000;stop-opacity:1"
         offset="0" />
      <stop
         id="stop5064"
         style="stop-color:#000000;stop-opacity:0"
         offset="1" />
    </linearGradient>
    <radialGradient
       cx="605.71429"
       cy="486.64789"
       r="117.14286"
       fx="605.71429"
       fy="486.64789"
       id="radialGradient3407"
       xlink:href="#linearGradient5060"
       gradientUnits="userSpaceOnUse"
       gradientTransform="matrix(2.774389,0,0,1.969706,-1891.633,-872.8854)" />
    <linearGradient
       id="linearGradient5048">
      <stop
         id="stop5050"
         style="stop-color:#000000;stop-opacity:0"
         offset="0" />
      <stop
         id="stop5056"
         style="stop-color:#000000;stop-opacity:1"
         offset="0.5" />
      <stop
         id="stop5052"
         style="stop-color:#000000;stop-opacity:0"
         offset="1" />
    </linearGradient>
    <linearGradient
       x1="302.85715"
       y1="366.64789"
       x2="302.85715"
       y2="609.50507"
       id="linearGradient3405"
       xlink:href="#linearGradient5048"
       gradientUnits="userSpaceOnUse"
       gradientTransform="matrix(2.774389,0,0,1.969706,-1892.179,-872.8854)" />
    <linearGradient
       id="linearGradient4008-764">
      <stop
         id="stop4334"
         style="stop-color:#595959;stop-opacity:1"
         offset="0" />
      <stop
         id="stop4336"
         style="stop-color:#b3b3b3;stop-opacity:1"
         offset="1" />
    </linearGradient>
    <linearGradient
       x1="10.014208"
       y1="44.960102"
       x2="10.014208"
       y2="2.8764627"
       id="linearGradient2595"
       xlink:href="#linearGradient4008-764"
       gradientUnits="userSpaceOnUse"
       gradientTransform="matrix(0.6596091,0,0,0.6104885,0.1693947,2.3407964)" />
    <linearGradient
       id="linearGradient3994-617">
      <stop
         id="stop4324"
         style="stop-color:#d8d8d8;stop-opacity:1"
         offset="0" />
      <stop
         id="stop2860"
         style="stop-color:#afafaf;stop-opacity:1"
         offset="0.08552461" />
      <stop
         id="stop2862"
         style="stop-color:#aaaaaa;stop-opacity:1"
         offset="0.92166406" />
      <stop
         id="stop4326"
         style="stop-color:#8f8f8f;stop-opacity:1"
         offset="1" />
    </linearGradient>
    <linearGradient
       x1="23.999996"
       y1="7.9600015"
       x2="23.999996"
       y2="43.865456"
       id="linearGradient2593"
       xlink:href="#linearGradient3994-617"
       gradientUnits="userSpaceOnUse"
       gradientTransform="matrix(0.6889216,0,0,0.6757147,-0.5341142,-0.5685816)" />
    <linearGradient
       id="linearGradient4128">
      <stop
         id="stop4130"
         style="stop-color:#3d434a;stop-opacity:1"
         offset="0" />
      <stop
         id="stop4132"
         style="stop-color:#000000;stop-opacity:1"
         offset="1" />
    </linearGradient>
    <radialGradient
       cx="16.352173"
       cy="12.225069"
       r="19.170427"
       fx="16.352173"
       fy="12.225069"
       id="radialGradient2590"
       xlink:href="#linearGradient4128"
       gradientUnits="userSpaceOnUse"
       gradientTransform="matrix(0,0.6313979,-1.510651,0,32.407833,4.1077959)" />
    <linearGradient
       id="linearGradient2223-4">
      <stop
         id="stop2225-6"
         style="stop-color:#ffffff;stop-opacity:1"
         offset="0" />
      <stop
         id="stop2229-2"
         style="stop-color:#ffffff;stop-opacity:0"
         offset="1" />
    </linearGradient>
    <linearGradient
       x1="23.070969"
       y1="36.046932"
       x2="23.070969"
       y2="33.296398"
       id="linearGradient2587"
       xlink:href="#linearGradient2223-4"
       gradientUnits="userSpaceOnUse"
       gradientTransform="matrix(0.6861521,0,0,0.6852405,-0.4636347,3.3233838)" />
    <linearGradient
       id="linearGradient2238-2-3">
      <stop
         id="stop2240-1-6"
         style="stop-color:#ffffff;stop-opacity:1"
         offset="0" />
      <stop
         id="stop2242-7-3"
         style="stop-color:#ffffff;stop-opacity:0"
         offset="1" />
    </linearGradient>
    <linearGradient
       x1="12.578789"
       y1="-7.8073711"
       x2="12.578789"
       y2="41.827358"
       id="linearGradient2581"
       xlink:href="#linearGradient2238-2-3"
       gradientUnits="userSpaceOnUse"
       gradientTransform="matrix(0.6438836,0,0,0.589209,0.5460101,3.4517141)" />
    <linearGradient
       id="linearGradient4182">
      <stop
         id="stop4184"
         style="stop-color:#e4e5e8;stop-opacity:1"
         offset="0" />
      <stop
         id="stop4186"
         style="stop-color:#b3bbc7;stop-opacity:1"
         offset="1" />
    </linearGradient>
    <linearGradient
       x1="19.362526"
       y1="20.069984"
       x2="19.362526"
       y2="34.400269"
       id="linearGradient3409"
       xlink:href="#linearGradient4182"
       gradientUnits="userSpaceOnUse"
       gradientTransform="matrix(0.4236753,0,0,0.4527734,-0.237996,2.963372)" />
    <linearGradient
       id="linearGradient8265-821-176-38-919-66-249-7-7">
      <stop
         id="stop2687-1-9"
         style="stop-color:#ffffff;stop-opacity:1"
         offset="0" />
      <stop
         id="stop2689-5-4"
         style="stop-color:#ffffff;stop-opacity:0"
         offset="1" />
    </linearGradient>
    <linearGradient
       x1="16.626165"
       y1="15.298182"
       x2="20.054544"
       y2="24.627615"
       id="linearGradient2584"
       xlink:href="#linearGradient8265-821-176-38-919-66-249-7-7"
       gradientUnits="userSpaceOnUse"
       gradientTransform="matrix(0.6530612,0,0,0.6967198,0.326532,0.8414544)" />
  </defs>
  <g
     id="layer1">
    <g
       transform="matrix(1.5760178e-2,0,0,1.2542929e-2,30.017663,26.89018)"
       id="g2583">
      <rect
         width="1339.6335"
         height="478.35718"
         x="-1559.2523"
         y="-150.69685"
         id="rect2585"
         style="opacity:0.40206185;fill:url(#linearGradient3405);fill-opacity:1;fill-rule:nonzero;stroke:none;stroke-width:1;stroke-linecap:round;stroke-linejoin:miter;marker:none;marker-start:none;marker-mid:none;marker-end:none;stroke-miterlimit:4;stroke-dasharray:none;stroke-dashoffset:0;stroke-opacity:1;visibility:visible;display:inline;overflow:visible" />
      <path
         d="M -219.61876,-150.68038 C -219.61876,-150.68038 -219.61876,327.65041 -219.61876,327.65041 C -76.744594,328.55086 125.78146,220.48075 125.78138,88.454235 C 125.78138,-43.572302 -33.655436,-150.68036 -219.61876,-150.68038 z"
         id="path2587"
         style="opacity:0.40206185;fill:url(#radialGradient3407);fill-opacity:1;fill-rule:nonzero;stroke:none;stroke-width:1;stroke-linecap:round;stroke-linejoin:miter;marker:none;marker-start:none;marker-mid:none;marker-end:none;stroke-miterlimit:4;stroke-dasharray:none;stroke-dashoffset:0;stroke-opacity:1;visibility:visible;display:inline;overflow:visible" />
      <path
         d="M -1559.2523,-150.68038 C -1559.2523,-150.68038 -1559.2523,327.65041 -1559.2523,327.65041 C -1702.1265,328.55086 -1904.6525,220.48075 -1904.6525,88.454235 C -1904.6525,-43.572302 -1745.2157,-150.68036 -1559.2523,-150.68038 z"
         id="path2589"
         style="opacity:0.40206185;fill:url(#radialGradient3409);fill-opacity:1;fill-rule:nonzero;stroke:none;stroke-width:1;stroke-linecap:round;stroke-linejoin:miter;marker:none;marker-start:none;marker-mid:none;marker-end:none;stroke-miterlimit:4;stroke-dasharray:none;stroke-dashoffset:0;stroke-opacity:1;visibility:visible;display:inline;overflow:visible" />
    </g>
    <rect
       width="30.999998"
       height="25"
       rx="1.032647"
       ry="1.012851"
       x="0.49999997"
       y="4.5"
       id="rect2551"
       style="fill:url(#linearGradient2593);fill-opacity:1;fill-rule:evenodd;stroke:url(#linearGradient2595);stroke-width:1;stroke-linecap:round;stroke-linejoin:round;stroke-miterlimit:4;stroke-dasharray:none;stroke-dashoffset:0;stroke-opacity:1" />
    <rect
       width="25"
       height="19.000002"
       rx="0"
       ry="0"
       x="3.5"
       y="7.5"
       id="rect1314"
       style="fill:url(#radialGradient2590);fill-opacity:1;fill-rule:evenodd;stroke:#1e1f1f;stroke-width:1;stroke-linecap:round;stroke-linejoin:round;stroke-miterlimit:4;stroke-dasharray:none;stroke-dashoffset:0;stroke-opacity:1" />
    <rect
       width="27"
       height="21"
       rx="0"
       ry="0"
       x="2.5"
       y="6.5"
       id="rect2221"
       style="opacity:0.4;fill:none;stroke:url(#linearGradient2587);stroke-width:1;stroke-linecap:round;stroke-linejoin:round;stroke-miterlimit:4;stroke-dasharray:none;stroke-dashoffset:0;stroke-opacity:1" />
    <rect
       width="29"
       height="22.999998"
       rx="0.33597848"
       ry="0.3273786"
       x="1.5"
       y="5.4999995"
       id="rect2556"
       style="opacity:0.4;fill:none;stroke:url(#linearGradient2581);stroke-width:1;stroke-linecap:round;stroke-linejoin:round;stroke-miterlimit:4;stroke-dasharray:none;stroke-dashoffset:0;stroke-opacity:1" />
    <path
       d="M 13.31961,15.420428 C 11.060009,16.45605 8.800408,17.491671 6.540806,18.527294 C 6.540806,18.076698 6.540806,17.626103 6.540806,17.175508 C 8.329852,16.381365 10.118896,15.587223 11.907942,14.79308 C 10.118896,14.006405 8.329852,13.21973 6.540806,12.433056 C 6.540806,11.989929 6.540806,11.546802 6.540806,11.103676 C 8.800408,12.124361 11.060009,13.145047 13.31961,14.165732 C 13.31961,14.583964 13.31961,15.002195 13.31961,15.420428 z M 21.405259,21.586028 C 21.405259,22.022793 21.405259,22.459558 21.405259,22.896323 C 18.926685,22.896323 16.448112,22.896323 13.969538,22.896323 C 13.969538,22.459558 13.969538,22.022793 13.969538,21.586028 C 16.448112,21.586028 18.926685,21.586028 21.405259,21.586028 z"
       id="text4138"
       style="font-size:22.23835945px;font-style:normal;font-variant:normal;font-weight:normal;font-stretch:normal;text-align:start;line-height:125%;writing-mode:lr-tb;text-anchor:start;fill:url(#linearGradient3409);fill-opacity:1;stroke:none;font-family:OpenSymbol;-inkscape-font-specification:OpenSymbol" />
    <path
       d="M 2.4285719,5.0000005 C 1.6394931,5.0000005 1,5.6822445 1,6.5240738 L 1,17.671591 C 1.0018412,17.765372 1.040357,17.854055 1.1062869,17.916117 C 1.172211,17.978175 1.2594943,18.007941 1.3469383,17.998178 L 30.734694,13.034051 C 30.885864,13.008618 30.997886,12.870717 31,12.707462 L 31,6.5240738 C 31,5.6822445 30.360506,5.0000005 29.571428,5.0000005 L 2.4285719,5.0000005 L 2.4285719,5.0000005 z"
       id="path3333"
       style="opacity:0.2;fill:url(#linearGradient2584);fill-opacity:1;fill-rule:evenodd;stroke:none;stroke-width:1;stroke-miterlimit:4;stroke-dasharray:none" />
  </g>
</svg>

<?xml version="1.0" encoding="UTF-8" standalone="no"?>
<!-- Created with Inkscape (http://www.inkscape.org/) -->

<svg
   xmlns:svg="http://www.w3.org/2000/svg"
   xmlns="http://www.w3.org/2000/svg"
   xmlns:xlink="http://www.w3.org/1999/xlink"
   version="1.0"
   width="32"
   height="32"
   id="svg3415">
  <defs
     id="defs3417">
    <radialGradient
       cx="605.71429"
       cy="486.64789"
       r="117.14286"
       fx="605.71429"
       fy="486.64789"
       id="radialGradient3409"
       xlink:href="#linearGradient5060"
       gradientUnits="userSpaceOnUse"
       gradientTransform="matrix(-2.774389,0,0,1.969706,112.7623,-872.8854)" />
    <linearGradient
       id="linearGradient5060">
      <stop
         id="stop5062"
         style="stop-color:black;stop-opacity:1"
         offset="0" />
      <stop
         id="stop5064"
         style="stop-color:black;stop-opacity:0"
         offset="1" />
    </linearGradient>
    <radialGradient
       cx="605.71429"
       cy="486.64789"
       r="117.14286"
       fx="605.71429"
       fy="486.64789"
       id="radialGradient3407"
       xlink:href="#linearGradient5060"
       gradientUnits="userSpaceOnUse"
       gradientTransform="matrix(2.774389,0,0,1.969706,-1891.633,-872.8854)" />
    <linearGradient
       id="linearGradient5048">
      <stop
         id="stop5050"
         style="stop-color:black;stop-opacity:0"
         offset="0" />
      <stop
         id="stop5056"
         style="stop-color:black;stop-opacity:1"
         offset="0.5" />
      <stop
         id="stop5052"
         style="stop-color:black;stop-opacity:0"
         offset="1" />
    </linearGradient>
    <linearGradient
       x1="302.85715"
       y1="366.64789"
       x2="302.85715"
       y2="609.50507"
       id="linearGradient3405"
       xlink:href="#linearGradient5048"
       gradientUnits="userSpaceOnUse"
       gradientTransform="matrix(2.774389,0,0,1.969706,-1892.179,-872.8854)" />
    <linearGradient
       id="linearGradient4008-764">
      <stop
         id="stop4334"
         style="stop-color:#595959;stop-opacity:1"
         offset="0" />
      <stop
         id="stop4336"
         style="stop-color:#b3b3b3;stop-opacity:1"
         offset="1" />
    </linearGradient>
    <linearGradient
       x1="10.014208"
       y1="44.960102"
       x2="10.014208"
       y2="2.8764627"
       id="linearGradient2595"
       xlink:href="#linearGradient4008-764"
       gradientUnits="userSpaceOnUse"
       gradientTransform="matrix(0.6596091,0,0,0.6104885,0.1693947,2.3407964)" />
    <linearGradient
       id="linearGradient3994-617">
      <stop
         id="stop4324"
         style="stop-color:#d8d8d8;stop-opacity:1"
         offset="0" />
      <stop
         id="stop2860"
         style="stop-color:#afafaf;stop-opacity:1"
         offset="0.08552461" />
      <stop
         id="stop2862"
         style="stop-color:#aaa;stop-opacity:1"
         offset="0.92166406" />
      <stop
         id="stop4326"
         style="stop-color:#8f8f8f;stop-opacity:1"
         offset="1" />
    </linearGradient>
    <linearGradient
       x1="23.999996"
       y1="7.9600015"
       x2="23.999996"
       y2="43.865456"
       id="linearGradient2593"
       xlink:href="#linearGradient3994-617"
       gradientUnits="userSpaceOnUse"
       gradientTransform="matrix(0.6889216,0,0,0.6757147,-0.5341142,-0.5685816)" />
    <linearGradient
       id="linearGradient4128">
      <stop
         id="stop4130"
         style="stop-color:#3d434a;stop-opacity:1"
         offset="0" />
      <stop
         id="stop4132"
         style="stop-color:black;stop-opacity:1"
         offset="1" />
    </linearGradient>
    <radialGradient
       cx="16.352173"
       cy="12.225069"
       r="19.170427"
       fx="16.352173"
       fy="12.225069"
       id="radialGradient2590"
       xlink:href="#linearGradient4128"
       gradientUnits="userSpaceOnUse"
       gradientTransform="matrix(0,0.6313979,-1.510651,0,32.407833,4.1077959)" />
    <linearGradient
       id="linearGradient2223-4">
      <stop
         id="stop2225-6"
         style="stop-color:white;stop-opacity:1"
         offset="0" />
      <stop
         id="stop2229-2"
         style="stop-color:white;stop-opacity:0"
         offset="1" />
    </linearGradient>
    <linearGradient
       x1="23.070969"
       y1="36.046932"
       x2="23.070969"
       y2="33.296398"
       id="linearGradient2587"
       xlink:href="#linearGradient2223-4"
       gradientUnits="userSpaceOnUse"
       gradientTransform="matrix(0.6861521,0,0,0.6852405,-0.4636347,3.3233838)" />
    <linearGradient
       id="linearGradient2238-2-3">
      <stop
         id="stop2240-1-6"
         style="stop-color:white;stop-opacity:1"
         offset="0" />
      <stop
         id="stop2242-7-3"
         style="stop-color:white;stop-opacity:0"
         offset="1" />
    </linearGradient>
    <linearGradient
       x1="12.578789"
       y1="-7.8073711"
       x2="12.578789"
       y2="41.827358"
       id="linearGradient2581"
       xlink:href="#linearGradient2238-2-3"
       gradientUnits="userSpaceOnUse"
       gradientTransform="matrix(0.6438836,0,0,0.589209,0.5460101,3.4517141)" />
    <linearGradient
       id="linearGradient4182">
      <stop
         id="stop4184"
         style="stop-color:#e4e5e8;stop-opacity:1"
         offset="0" />
      <stop
         id="stop4186"
         style="stop-color:#b3bbc7;stop-opacity:1"
         offset="1" />
    </linearGradient>
    <linearGradient
       x1="19.362526"
       y1="20.069984"
       x2="19.362526"
       y2="34.400269"
       id="linearGradient3409"
       xlink:href="#linearGradient4182"
       gradientUnits="userSpaceOnUse"
       gradientTransform="matrix(0.4236753,0,0,0.4527734,-0.237996,2.963372)" />
    <linearGradient
       id="linearGradient8265-821-176-38-919-66-249-7-7">
      <stop
         id="stop2687-1-9"
         style="stop-color:white;stop-opacity:1"
         offset="0" />
      <stop
         id="stop2689-5-4"
         style="stop-color:white;stop-opacity:0"
         offset="1" />
    </linearGradient>
    <linearGradient
       x1="16.626165"
       y1="15.298182"
       x2="20.054544"
       y2="24.627615"
       id="linearGradient2584"
       xlink:href="#linearGradient8265-821-176-38-919-66-249-7-7"
       gradientUnits="userSpaceOnUse"
       gradientTransform="matrix(0.6530612,0,0,0.6967198,0.326532,0.8414544)" />
  </defs>
  <g
     id="layer1">
    <g
       transform="matrix(0.01576018,0,0,0.01254293,30.017663,26.89018)"
       id="g2583">
      <rect
         width="1339.6335"
         height="478.35718"
         x="-1559.2523"
         y="-150.69685"
         id="rect2585"
         style="opacity:0.40206185;fill:url(#linearGradient3405);fill-opacity:1;fill-rule:nonzero;stroke:none;stroke-width:1;marker:none;visibility:visible;display:inline;overflow:visible" />
      <path
         d="m -219.61876,-150.68038 c 0,0 0,478.33079 0,478.33079 142.874166,0.90045 345.40022,-107.16966 345.40014,-239.196175 0,-132.026537 -159.436816,-239.134595 -345.40014,-239.134615 z"
         id="path2587"
         style="opacity:0.40206185;fill:url(#radialGradient3407);fill-opacity:1;fill-rule:nonzero;stroke:none;stroke-width:1;marker:none;visibility:visible;display:inline;overflow:visible" />
      <path
         d="m -1559.2523,-150.68038 c 0,0 0,478.33079 0,478.33079 -142.8742,0.90045 -345.4002,-107.16966 -345.4002,-239.196175 0,-132.026537 159.4368,-239.134595 345.4002,-239.134615 z"
         id="path2589"
         style="opacity:0.40206185;fill:url(#radialGradient3409);fill-opacity:1;fill-rule:nonzero;stroke:none;stroke-width:1;marker:none;visibility:visible;display:inline;overflow:visible" />
    </g>
    <rect
       width="30.999998"
       height="25"
       rx="1.032647"
       ry="1.012851"
       x="0.49999997"
       y="4.5"
       id="rect2551"
       style="fill:url(#linearGradient2593);fill-opacity:1;fill-rule:evenodd;stroke:url(#linearGradient2595);stroke-width:1;stroke-linecap:round;stroke-linejoin:round;stroke-miterlimit:4;stroke-opacity:1;stroke-dasharray:none;stroke-dashoffset:0" />
    <rect
       width="25"
       height="19.000002"
       rx="0"
       ry="0"
       x="3.5"
       y="7.5"
       id="rect1314"
       style="fill:url(#radialGradient2590);fill-opacity:1;fill-rule:evenodd;stroke:#1e1f1f;stroke-width:1;stroke-linecap:round;stroke-linejoin:round;stroke-miterlimit:4;stroke-opacity:1;stroke-dasharray:none;stroke-dashoffset:0" />
    <rect
       width="27"
       height="21"
       rx="0"
       ry="0"
       x="2.5"
       y="6.5"
       id="rect2221"
       style="opacity:0.4;fill:none;stroke:url(#linearGradient2587);stroke-width:1;stroke-linecap:round;stroke-linejoin:round;stroke-miterlimit:4;stroke-opacity:1;stroke-dasharray:none;stroke-dashoffset:0" />
    <rect
       width="29"
       height="22.999998"
       rx="0.33597848"
       ry="0.3273786"
       x="1.5"
       y="5.4999995"
       id="rect2556"
       style="opacity:0.4;fill:none;stroke:url(#linearGradient2581);stroke-width:1;stroke-linecap:round;stroke-linejoin:round;stroke-miterlimit:4;stroke-opacity:1;stroke-dasharray:none;stroke-dashoffset:0" />
    <path
       d="m 13.31961,15.420428 c -2.259601,1.035622 -4.519202,2.071243 -6.778804,3.106866 0,-0.450596 0,-0.901191 0,-1.351786 1.789046,-0.794143 3.57809,-1.588285 5.367136,-2.382428 -1.789046,-0.786675 -3.57809,-1.57335 -5.367136,-2.360024 0,-0.443127 0,-0.886254 0,-1.32938 2.259602,1.020685 4.519203,2.041371 6.778804,3.062056 0,0.418232 0,0.836463 0,1.254696 z m 8.085649,6.1656 c 0,0.436765 0,0.87353 0,1.310295 -2.478574,0 -4.957147,0 -7.435721,0 0,-0.436765 0,-0.87353 0,-1.310295 2.478574,0 4.957147,0 7.435721,0 z"
       id="text4138"
       style="font-size:22.23835945px;font-style:normal;font-variant:normal;font-weight:normal;font-stretch:normal;text-align:start;line-height:125%;writing-mode:lr-tb;text-anchor:start;fill:url(#linearGradient3409);fill-opacity:1;stroke:none;font-family:OpenSymbol;-inkscape-font-specification:OpenSymbol" />
    <path
       d="M 2.4285719,5.0000005 C 1.6394931,5.0000005 1,5.6822445 1,6.5240738 L 1,17.671591 c 0.00184,0.09378 0.040357,0.182464 0.1062869,0.244526 0.065924,0.06206 0.1532074,0.09182 0.2406514,0.08206 L 30.734694,13.034051 C 30.885864,13.008618 30.997886,12.870717 31,12.707462 L 31,6.5240738 C 31,5.6822445 30.360506,5.0000005 29.571428,5.0000005 l -27.1428561,0 0,0 z"
       id="path3333"
       style="opacity:0.2;fill:url(#linearGradient2584);fill-opacity:1;fill-rule:evenodd;stroke:none" />
  </g>
</svg>
